35f
albertroad.htmlalbertroad.htmlalbertroad.htmlalbertroad.htmlalbertroad.htmlalbertroad.htmlalbertroad.html<P ALIGN=Right>Terry Crehan
albertroad.htmlalbertroad.html

T:Terry Crehan's
M:C|
L:1/8
C:Terry Crehan
R:reel
D:Mirella Murray and Tóla Custy: Three Sunsets
Z:Devin McCabe
K:GDor
GBdB cBAG|F2 A/2B/2c fcAc|GABd cBGF|DGGF GDBA|
!GBdB cBAG|F2 A/2B/2c fcAc|GABd cBGF|1DGGF GDBA:|2DGGF G2 A/2B/2c||
!dgbg agfg|dgg^f g2dg|bgg^f g=fde|fdcA BG A/2B/2c|
!dgbg agfg|dgg^f g2dg|bgg^f g=fde|fdcA G3z|
!b3g agfg|dgg^f g2dg|bgg^f g=fde|fdcA dcBA|
!GBdB cBAG|F2 A/2B/2c fcAc|GABd cBGF|DGGF GDBA||



albertroad.htmlalbertroad.htmlalbertroad.htmlalbertroad.htmlalbertroad.htmlalbertroad.html
0

